.files/icons/devices/Airpods.svg

<svg fill="none" height="48" viewBox="0 0 48 48" width="48" xmlns="http://www.w3.org/2000/svg"><g clip-rule="evenodd" fill="#000" fill-rule="evenodd"><path d="m28 22.9445c1.6523 1.4788 3.7169 2.5066 6 2.8896v16.1659c0 1.1046-.8954 2-2 2h-2c-1.1046 0-2-.8954-2-2z" opacity=".3"/><path d="m14 25.8341c2.2831-.383 4.3477-1.4108 6-2.8896v19.0555c0 1.1046-.8954 2-2 2h-2c-1.1046 0-2-.8954-2-2z" opacity=".3"/><path d="m36 24c5.5228 0 10-4.4772 10-10 0-5.52285-4.4772-10-10-10s-10 4.47715-10 10c0 5.5228 4.4772 10 10 10zm-8-10c0-.5523.4477-1 1-1h2c.5523 0 1 .4477 1 1v1c0 .5523-.4477 1-1 1h-2c-.5523 0-1-.4477-1-1zm13-4c-.5523 0-1 .4477-1 1v6c0 .5523.4477 1 1 1h2c.5523 0 1-.4477 1-1v-6c0-.5523-.4477-1-1-1z"/><path d="m12 24c5.5228 0 10-4.4772 10-10 0-5.52285-4.4772-10-10-10-5.52285 0-10 4.47715-10 10 0 5.5228 4.47715 10 10 10zm4-10c0-.5523.4477-1 1-1h2c.5523 0 1 .4477 1 1v1c0 .5523-.4477 1-1 1h-2c-.5523 0-1-.4477-1-1zm-11-4c-.55228 0-1 .4477-1 1v6c0 .5523.44772 1 1 1h2c.55228 0 1-.4477 1-1v-6c0-.5523-.44772-1-1-1z"/></g></svg>

<svg width="48" height="48" viewBox="0 0 48 48" fill="none" xmlns="http://www.w3.org/2000/svg">
<path opacity="0.3" fill-rule="evenodd" clip-rule="evenodd" d="M28 22.9445C29.6523 24.4233 31.7169 25.4511 34 25.8341V42C34 43.1046 33.1046 44 32 44H30C28.8954 44 28 43.1046 28 42V22.9445Z" fill="black"/>
<path opacity="0.3" fill-rule="evenodd" clip-rule="evenodd" d="M14 25.8341C16.2831 25.4511 18.3477 24.4233 20 22.9445V42C20 43.1046 19.1046 44 18 44H16C14.8954 44 14 43.1046 14 42V25.8341Z" fill="black"/>
<path fill-rule="evenodd" clip-rule="evenodd" d="M36 24C41.5228 24 46 19.5228 46 14C46 8.47715 41.5228 4 36 4C30.4772 4 26 8.47715 26 14C26 19.5228 30.4772 24 36 24ZM28 14C28 13.4477 28.4477 13 29 13H31C31.5523 13 32 13.4477 32 14V15C32 15.5523 31.5523 16 31 16H29C28.4477 16 28 15.5523 28 15V14ZM41 10C40.4477 10 40 10.4477 40 11V17C40 17.5523 40.4477 18 41 18H43C43.5523 18 44 17.5523 44 17V11C44 10.4477 43.5523 10 43 10H41Z" fill="black"/>
<path fill-rule="evenodd" clip-rule="evenodd" d="M12 24C17.5228 24 22 19.5228 22 14C22 8.47715 17.5228 4 12 4C6.47715 4 2 8.47715 2 14C2 19.5228 6.47715 24 12 24ZM16 14C16 13.4477 16.4477 13 17 13H19C19.5523 13 20 13.4477 20 14V15C20 15.5523 19.5523 16 19 16H17C16.4477 16 16 15.5523 16 15V14ZM5 10C4.44772 10 4 10.4477 4 11V17C4 17.5523 4.44772 18 5 18H7C7.55228 18 8 17.5523 8 17V11C8 10.4477 7.55228 10 7 10H5Z" fill="black"/>
</svg>
